X:303
T: ES WOLLT EIN MAEDL ZUM TANZE GEHN
N: E0174
O: Europa, Mitteleuropa, Deutschland, Schlesien
R: erzaehlendes Volks - Lied, Sage, Pflanzen - Maerchen, Moral - Lied
M: 3/4
L: 1/8
K: G
D | DGG2G2 | FGA3
A | GGG2A2 | B2A2z
G | BAB2d2 | cBA2
A2 | GGc2B2 | A2G2z

@@@ Tune index: 3953
